X: 41123
T: Trip To The Bronx
R: hornpipe
M: 4/4
K: Amajor
AB|:"A" c2ec BcAB|BAce "A/C#"a2e2|"D"f2af ec"A/C#"AB|"D"BAec "Bm"B3B|
"E" BEGB "E/G#" d2 cB|"A" BAce "A/C#"f2(3efg|"D"a2AB "Bm"BAec|1 "E"BABc "A"A3B:|2 "E"BABc "A"A2a2||
|:"D"f2af defd|"A"egae c2Bc|"Bm"dBBB "A/C#"cBAc|1 "D"Bee^d "E"eaag||
"D"f2af defd|"F#m"egae c2Bc|"D"dBBB "A/C#"cBAc|"E"BABc "A"A2a2:|
[2 "D"Beee "E"e2z2||"A"c2ec BcAB|BAce "A/C#"a2e2|"D"f3f "Bm"ecBd|"E"cAGB "A"A2||

